X:121
T:Stoney Steps. Le4.121
M:C|
L:1/8
Q:1/4=120
B:L.Leadley MS#4 c1850
Z:Village Music Project, 2016 Ruairidh Greig
K:Bb
(BF) (dB) fdbf|ecAc BAGF|GEDE ABcd|"_semi-quavers in MS"efgBA4|
(BF) (dB) fdbf|ecAc BAGF|GEDE Acde|ecBAB4:|
DFBF DFBF|(DF) (Bd) BAGF|GABc defg|agf=e f4|
babf gfed|efgB BAGF|GEDE ABcd|ecBAB4:|

